X: 20222
Q: "Slow"
M: 3/4
L: 1/8
K: G
(GA/B/) |\
{A}G3 E D2 | E2 G2 g2 | {e}d3 B AG | {G2}A4 BA |\
(GA)GE D2 | E2 G2 g>e | d3 BAG | G4 |]


